X:75
T: Patkolják a lovamat
O: Trunk (Bákó), 1929
Q: 1/4=176
M:4/4
L:1/4
K:F
c>B A>B | c A d2 | 
c>B A>G | A G F z | 
A>G F>G | AGc2 | 
A>G F>G | FED z | 

